X:1     %Music
T:Lilliburlero
B:Singing Together, Spring 1967, BBC Publications
F:http://www.folkinfo.org/songs
M:6/8     %Meter
L:1/8     %
K:E
E |EFE G2 G |FGF A3 |GBE A2 G | FED E3 |
w:*Ho! bro-ther Teague, dost hear the de-cree? Lil-li-bur-le-ro, bul-len a-la,
EFE G2 G |FGF A3 |GBE A2 G |FED E3 |
w: That we shall have a new de-pu-ty, Lil-li-bur-le-ro, bul-len a-la.
e2 d e2 B |Bc=d c2 B |Bcd (eB)c | BAG (F2B) | 
w: Le-ro le-ro, lil-li-bur-le-ro, Lil-li-bur-le--ro, bul-len a la,_
(cB)A (GA)B |cBA (GA)B |ceE A2 G | FED E3 |]
w: Le--ro, le--ro, lil-li-bur-le--ro, Lil-li-bur-le-ro, bul-len a la. 